X: 76
T: Missa Incessament / Sanctus
N: Derived from Rue1016d-Missa_Incessament-Sanctus.krn
C: Pierre de la Rue
%%abc-version 2.0
%%abcx-abcm2ps-target-version 5.9.1 (29 Sep 2008)
%%abc-creator hum2abc beta
%%abcx-conversion-date 2019/02/17 08:01:12
%%abc-edited-by Jesse Rodin
%%abc-edited-by Chris Gage 10-23-2012
%%abcx-initial-encoding-date 2012/11/11/
%%humdrum-veritas 1625649659
%%humdrum-veritas-data 1491549653
%%linebreak <none>
%%barnumbers 0
L: 1/4
M: 2/1
Q: 1/2=120
V: 1 clef=treble
V: 2 clef=treble-8
V: 3 clef=treble-8
V: 4 clef=bass
V: 5 clef=bass
K: C
[V:1] z8 | 
[V:2] d8 | 
[V:3] z8 | 
[V:4] z8 | 
[V:5] z8 | 
[V:1] z8 | 
[V:2] B3cA4 | 
[V:3] z8 | 
[V:4] z8 | 
[V:5] z8 | 
[V:1] G8 | 
[V:2] G3AB2c2- | 
[V:3] z8 | 
[V:4] z8 | 
[V:5] E,8 | 
[V:1] E3FD4 | 
[V:2] cBA4^G2 | 
[V:3] z8 | 
[V:4] z8 | 
[V:5] C,3D,B,,4 | 
[V:1] C3DE2F2- | 
[V:2] A8- | 
[V:3] z8 | 
[V:4] A,8 | 
[V:5] A,,8- | 
[V:1] FED3^CC2 | 
[V:2] A8 | 
[V:3] z8 | 
[V:4] F,3G,E,4 | 
[V:5] A,,8 | 
[V:1] D3EF2G2 | 
[V:2] z8 | 
[V:3] d8 | 
[V:4] D,8- | 
[V:5] z8 | 
[V:1] D2G4^F2 | 
[V:2] z8 | 
[V:3] B3cA4 | 
[V:4] D,8 | 
[V:5] z8 | 
[V:1] G8 | 
[V:2] z8 | 
[V:3] G4B4- | 
[V:4] z8 | 
[V:5] z4G,4- | 
[V:1] z8 | 
[V:2] z8 | 
[V:3] B2AGA2B2 | 
[V:4] z8 | 
[V:5] G,2F,E,F,2G,2 | 
[V:1] z8 | 
[V:2] z4f4- | 
[V:3] c8 | 
[V:4] z4C4- | 
[V:5] C,4A,4- | 
[V:1] z8 | 
[V:2] f2ede4 | 
[V:3] z4z2A2 | 
[V:4] C2B,A,B,2C2 | 
[V:5] A,2G,F,G,2A,2 | 
[V:1] z8 | 
[V:2] d4f4- | 
[V:3] B2A3GFE | 
[V:4] F,4D4- | 
[V:5] D,8 | 
[V:1] z8 | 
[V:2] f2ede2f2 | 
[V:3] D4z2D2 | 
[V:4] D2CB,C2D2 | 
[V:5] z8 | 
[V:1] z4B4- | 
[V:2] g8 | 
[V:3] E3FGABc | 
[V:4] G,8 | 
[V:5] z4G,4- | 
[V:1] B2AGA2B2 | 
[V:2] z8 | 
[V:3] d2e2d4 | 
[V:4] z8 | 
[V:5] G,2F,E,F,2G,2 | 
[V:1] c3BA2GF | 
[V:2] z8 | 
[V:3] c8 | 
[V:4] z4C4- | 
[V:5] C,4A,4- | 
[V:1] EFGAG2E2 | 
[V:2] z8 | 
[V:3] z4z2c2 | 
[V:4] C2B,A,B,2C2 | 
[V:5] A,2G,F,G,2A,2 | 
[V:1] F4A4- | 
[V:2] z4f4- | 
[V:3] d2A3GFE | 
[V:4] F,4D4- | 
[V:5] D,8 | 
[V:1] A4A4 | 
[V:2] f2ede2f2 | 
[V:3] D4z2D2 | 
[V:4] D2CB,C2D2 | 
[V:5] z8 | 
[V:1] B3GBcd2- | 
[V:2] g6fe | 
[V:3] G2D2G3A | 
[V:4] G,8 | 
[V:5] G,,8 | 
[V:1] d2c4B2 | 
[V:2] d4g4 | 
[V:3] B2c2d4 | 
[V:4] z8 | 
[V:5] G,,8 | 
[V:1] c8 | 
[V:2] e4f2e2- | 
[V:3] c2A4GF | 
[V:4] C,8 | 
[V:5] A,,8 | 
[V:1] A8 | 
[V:2] e2d2c4 | 
[V:3] E4F4 | 
[V:4] C,8 | 
[V:5] A,,8 | 
[V:1] B4G3A | 
[V:2] B4d4- | 
[V:3] G3ABcB2- | 
[V:4] D,8 | 
[V:5] G,,4G,,4- | 
[V:1] B2c2d2B2 | 
[V:2] d2c2B4 | 
[V:3] B2A4^G2 | 
[V:4] D,8 | 
[V:5] G,,2A,,2B,,4 | 
[V:1] c2A4GF | 
[V:2] z2c2ABcd | 
[V:3] A8- | 
[V:4] C,4C,4- | 
[V:5] A,,3B,,C,D,E,2- | 
[V:1] E2A3Bc2 | 
[V:2] e2A2e4 | 
[V:3] A8 | 
[V:4] C,2D,2E,4 | 
[V:5] E,2D,4C,2 | 
[V:1] F2A2B2d2- | 
[V:2] f8 | 
[V:3] z8 | 
[V:4] D,3E,F,G,A,2- | 
[V:5] D,8 | 
[V:1] d2cBc4 | 
[V:2] d2e4dc | 
[V:3] z8 | 
[V:4] A,2G,4^F,2 | 
[V:5] B,,3C,A,,4 | 
[V:1] B8 | 
[V:2] e2d2B4 | 
[V:3] z4D4 | 
[V:4] G,8 | 
[V:5] G,,8- | 
[V:1] z4D4 | 
[V:2] z8 | 
[V:3] G4G4 | 
[V:4] E,3F,D,4 | 
[V:5] G,,8 | 
[V:1] G4G4 | 
[V:2] z4G4 | 
[V:3] E4E4 | 
[V:4] C,8- | 
[V:5] z8 | 
[V:1] E4E4 | 
[V:2] c4c4 | 
[V:3] A3Bc2d2 | 
[V:4] C,8 | 
[V:5] z8 | 
[V:1] A3Bc2d2 | 
[V:2] A4A3B | 
[V:3] e2f4ed | 
[V:4] z8 | 
[V:5] z8 | 
[V:1] A2d4^c2 | 
[V:2] c2d2A4 | 
[V:3] e2d2e4 | 
[V:4] z8 | 
[V:5] z8 | 
[V:1] d8 | 
[V:2] B2d3cBA | 
[V:3] d4G4 | 
[V:4] z8 | 
[V:5] z4G,,4 | 
[V:1] z4G4 | 
[V:2] G8 | 
[V:3] G4c4 | 
[V:4] z8 | 
[V:5] C,4C,4 | 
[V:1] c4c4 | 
[V:2] z8 | 
[V:3] c4A4- | 
[V:4] z4C,4 | 
[V:5] A,,4A,,4 | 
[V:1] A2d3cB2 | 
[V:2] z8 | 
[V:3] A4d4- | 
[V:4] F,4F,4 | 
[V:5] D,3E,F,2G,2 | 
[V:1] A2G4^F2 | 
[V:2] z8 | 
[V:3] d4d4 | 
[V:4] D,4D,4 | 
[V:5] A,2B,2A,4 | 
[V:1] G8- | 
[V:2] z2g3fe2 | 
[V:3] B4G3A | 
[V:4] G,3A,B,2C2 | 
[V:5] G,8 | 
[V:1] G8 | 
[V:2] d2c4B2 | 
[V:3] B2c2G4 | 
[V:4] D2E2D4 | 
[V:5] z4G,4 | 
[V:1] z8 | 
[V:2] c3defg2- | 
[V:3] z2c3BG2 | 
[V:4] C8 | 
[V:5] A,3G,F,2E,2 | 
[V:1] z4G3A | 
[V:2] g2f4e2 | 
[V:3] A2F2G4 | 
[V:4] z4C4 | 
[V:5] D,4C,4 | 
[V:1] Bcd4c2- | 
[V:2] f3dfedc | 
[V:3] z8 | 
[V:4] D3CB,2A,2 | 
[V:5] z8 | 
[V:1] c2B2A2c2- | 
[V:2] d2e2f4- | 
[V:3] z4c4- | 
[V:4] G,4F,4 | 
[V:5] G,4A,3G, | 
[V:1] cBAGF4 | 
[V:2] f4f4 | 
[V:3] c4d4 | 
[V:4] z8 | 
[V:5] F,2E,2D,4 | 
[V:1] E4G3A | 
[V:2] g6fe | 
[V:3] G3AB2c2 | 
[V:4] C4D3C | 
[V:5] C,4G,,4- | 
[V:1] B2c2d4- | 
[V:2] d8- | 
[V:3] d4D4 | 
[V:4] B,2A,2G,4 | 
[V:5] G,,2A,,2B,,2C,2 | 
[V:1] d2cBA4 | 
[V:2] d8 | 
[V:3] z2D3EFG | 
[V:4] F,8- | 
[V:5] D,8 | 
[V:1] z2D3EFG | 
[V:2] d8- | 
[V:3] A2_B4AG | 
[V:4] F,8- | 
[V:5] D,8- | 
[V:1] A2_B2A2D2 | 
[V:2] d8- | 
[V:3] F2G2A4- | 
[V:4] F,8- | 
[V:5] D,8- | 
[V:1] F3GA4 ||  
[V:2] d8 ||  
[V:3] A4A4 ||  
[V:4] F,8 ||  
[V:5] D,8 ||  
[V:1]  [K:C] [K:clef=treble][M:2/1]z4D4 | 
[V:2]  [K:C] [K:clef=treble-8][M:2/1]d8- | 
[V:3]  [K:C] [K:clef=treble-8][M:2/1]z8 | 
[V:4]  [K:C] [K:clef=bass][M:2/1]z8 | 
[V:5]  [K:C] [K:clef=bass][M:2/1]z8 | 
[V:1] DEFGA2D2 | 
[V:2] d8 | 
[V:3] z8 | 
[V:4] z8 | 
[V:5] z8 | 
[V:1] F3GA2B2 | 
[V:2] d8 | 
[V:3] z8 | 
[V:4] z8 | 
[V:5] z8 | 
[V:1] c8- | 
[V:2] A4z2A2- | 
[V:3] z8 | 
[V:4] z8 | 
[V:5] z8 | 
[V:1] c8 | 
[V:2] ABcde2A2 | 
[V:3] z8 | 
[V:4] z8 | 
[V:5] z8 | 
[V:1] c8 | 
[V:2] c3de2f2 | 
[V:3] z8 | 
[V:4] z8 | 
[V:5] z8 | 
[V:1] B6AG | 
[V:2] g6fe | 
[V:3] z8 | 
[V:4] z8 | 
[V:5] z8 | 
[V:1] A2G4c2- | 
[V:2] f2e4e2- | 
[V:3] z8 | 
[V:4] z8 | 
[V:5] z8 | 
[V:1] c2B4AG | 
[V:2] e2dcd2e2 | 
[V:3] z8 | 
[V:4] z8 | 
[V:5] z8 | 
[V:1] A4D4 | 
[V:2] f4z2f2- | 
[V:3] z8 | 
[V:4] z8 | 
[V:5] z8 | 
[V:1] z2c4B2- | 
[V:2] f2e4dc | 
[V:3] z8 | 
[V:4] z8 | 
[V:5] z8 | 
[V:1] B2AGA2D2- | 
[V:2] d2c2f4 | 
[V:3] z8 | 
[V:4] z8 | 
[V:5] z8 | 
[V:1] DEFGA2B2 | 
[V:2] z2f4e2- | 
[V:3] z8 | 
[V:4] z8 | 
[V:5] z8 | 
[V:1] c2B4AG | 
[V:2] e2dcd2c2 | 
[V:3] z8 | 
[V:4] z8 | 
[V:5] z8 | 
[V:1] A2D3EFG | 
[V:2] f3ed2c2 | 
[V:3] z8 | 
[V:4] z8 | 
[V:5] z8 | 
[V:1] A2B2c3B | 
[V:2] f2e4dc | 
[V:3] z8 | 
[V:4] z8 | 
[V:5] z8 | 
[V:1] AGG4^F2 | 
[V:2] d2G2A4 | 
[V:3] z8 | 
[V:4] z8 | 
[V:5] z8 | 
[V:1] G8 | 
[V:2] G8- | 
[V:3] z8 | 
[V:4] z8 | 
[V:5] z8 | 
[V:1] z4G4 | 
[V:2] G8 | 
[V:3] z8 | 
[V:4] z8 | 
[V:5] z8 | 
[V:1] E3FD4 | 
[V:2] z8 | 
[V:3] z8 | 
[V:4] z8 | 
[V:5] z8 | 
[V:1] C4z2G2 | 
[V:2] g4e3f | 
[V:3] z8 | 
[V:4] z8 | 
[V:5] z8 | 
[V:1] A2B2E4 | 
[V:2] d4c2g2 | 
[V:3] z8 | 
[V:4] z8 | 
[V:5] z8 | 
[V:1] z2G2A2B2 | 
[V:2] e3fd4 | 
[V:3] z8 | 
[V:4] z8 | 
[V:5] z8 | 
[V:1] EFGAF2E2 | 
[V:2] c4z2c2 | 
[V:3] z8 | 
[V:4] z8 | 
[V:5] z8 | 
[V:1] z2B2c2BA | 
[V:2] d2e2A4 | 
[V:3] z8 | 
[V:4] z8 | 
[V:5] z8 | 
[V:1] G2A2z2B2 | 
[V:2] z2c2d2e2 | 
[V:3] z8 | 
[V:4] z8 | 
[V:5] z8 | 
[V:1] c3AB2c2- | 
[V:2] (3:2:4A4c2d2e4 | 
[V:3] z8 | 
[V:4] z8 | 
[V:5] z8 | 
[V:1] cABcd2c2- | 
[V:2] A2e2fedc | 
[V:3] z8 | 
[V:4] z8 | 
[V:5] z8 | 
[V:1] c2B2c4 | 
[V:2] d4c4- | 
[V:3] z8 | 
[V:4] z8 | 
[V:5] z8 | 
[V:1] z2G2A3c | 
[V:2] c4z2A2 | 
[V:3] z8 | 
[V:4] z8 | 
[V:5] z8 | 
[V:1] B2A4G2 | 
[V:2] G2A3cB2 | 
[V:3] z8 | 
[V:4] z8 | 
[V:5] z8 | 
[V:1] A3cB2A2- | 
[V:2] A4G2A2- | 
[V:3] z8 | 
[V:4] z8 | 
[V:5] z8 | 
[V:1] A2G2F2E2 | 
[V:2] AcB2A2c2- | 
[V:3] z8 | 
[V:4] z8 | 
[V:5] z8 | 
[V:1] D4z2G2 | 
[V:2] c2B2c4- | 
[V:3] z8 | 
[V:4] z8 | 
[V:5] z8 | 
[V:1] A3GF2E2 | 
[V:2] c4z2c2 | 
[V:3] z8 | 
[V:4] z8 | 
[V:5] z8 | 
[V:1] D2G3FED | 
[V:2] dcBAG2g2- | 
[V:3] z8 | 
[V:4] z8 | 
[V:5] z8 | 
[V:1] C4z2c2- | 
[V:2] gfedcBAG | 
[V:3] z8 | 
[V:4] z8 | 
[V:5] z8 | 
[V:1] cBAGFEDC | 
[V:2] A4z2g2 | 
[V:3] z8 | 
[V:4] z8 | 
[V:5] z8 | 
[V:1] D8 | 
[V:2] f3edcBA | 
[V:3] z8 | 
[V:4] z8 | 
[V:5] z8 | 
[V:1] z2d2c3B | 
[V:2] GABGA4- | 
[V:3] z8 | 
[V:4] z8 | 
[V:5] z8 | 
[V:1] AGFEDEFD | 
[V:2] A4z2d2 | 
[V:3] z8 | 
[V:4] z8 | 
[V:5] z8 | 
[V:1] E3DC2B,2 | 
[V:2] c3BAGG2- | 
[V:3] z8 | 
[V:4] z8 | 
[V:5] z8 | 
[V:1] A,4B,4 ||  
[V:2] G2^F2G4 ||  
[V:3] z8 ||  
[V:4] z8 ||  
[V:5] z8 ||  
[V:1]  [K:C] [K:clef=treble][M:2/1]G8 | 
[V:2]  [K:C] [K:clef=treble-8][M:2/1]d8 | 
[V:3]  [K:C] [K:clef=treble-8][M:2/1]G8 | 
[V:4]  [K:C] [K:clef=bass][M:2/1]z8 | 
[V:5]  [K:C] [K:clef=bass][M:2/1]G,,8 | 
[V:1] G8 | 
[V:2] d4e4- | 
[V:3] G4E4- | 
[V:4] z8 | 
[V:5] G,,4C,4- | 
[V:1] c8 | 
[V:2] e4e4 | 
[V:3] E4E4 | 
[V:4] C,8 | 
[V:5] C,4A,,4- | 
[V:1] c4A4- | 
[V:2] c4d4- | 
[V:3] A8 | 
[V:4] C,4F,4- | 
[V:5] A,,4D,4- | 
[V:1] A4A4 | 
[V:2] d4d4 | 
[V:3] A4F4 | 
[V:4] F,4D,4- | 
[V:5] D,4D,4 | 
[V:1] d8 | 
[V:2] B6c2 | 
[V:3] G6F2 | 
[V:4] D,4G,4- | 
[V:5] G,,6A,,2 | 
[V:1] d4G4 | 
[V:2] d4c4 | 
[V:3] D4E4- | 
[V:4] G,4G,4 | 
[V:5] B,,4C,4 | 
[V:1] c6B2 | 
[V:2] e8 | 
[V:3] E4c4- | 
[V:4] C,6D,2 | 
[V:5] A,,6B,,2 | 
[V:1] A2G4^F2 | 
[V:2] e4d4 | 
[V:3] c2B2A4 | 
[V:4] E,4F,4 | 
[V:5] C,4D,4 | 
[V:1] G8 | 
[V:2] B8 | 
[V:3] G3AB2G2 | 
[V:4] D,6E,2 | 
[V:5] G,,8 | 
[V:1] z4G4- | 
[V:2] z4d4 | 
[V:3] A2c4B2 | 
[V:4] F,4G,4 | 
[V:5] z4G,4- | 
[V:1] G4G4 | 
[V:2] e4e4 | 
[V:3] c8- | 
[V:4] C,8 | 
[V:5] G,4G,4 | 
[V:1] E6F2 | 
[V:2] g3fe2d2 | 
[V:3] c8 | 
[V:4] z4C4- | 
[V:5] C,6D,2 | 
[V:1] G4C2c2 | 
[V:2] c4z2c2 | 
[V:3] z8 | 
[V:4] C4C4 | 
[V:5] E,4F,4 | 
[V:1] B2A3BG2 | 
[V:2] d4f4- | 
[V:3] z8 | 
[V:4] F,6G,2 | 
[V:5] D,6E,2 | 
[V:1] C2c4B2 | 
[V:2] f2e2d4 | 
[V:3] z8 | 
[V:4] A,4B,4 | 
[V:5] F,4G,4 | 
[V:1] c8 | 
[V:2] z2c4d2 | 
[V:3] c6BA | 
[V:4] G,6A,2 | 
[V:5] C,8 | 
[V:1] z8 | 
[V:2] e2f4e2 | 
[V:3] G2F2G4 | 
[V:4] B,4C4 | 
[V:5] z4C,4 | 
[V:1] z4A4 | 
[V:2] f8 | 
[V:3] F2A3Bcd | 
[V:4] F,8 | 
[V:5] D,3E,F,G,A,F, | 
[V:1] G4F4 | 
[V:2] z4d4 | 
[V:3] B2c4B2 | 
[V:4] z4F,4 | 
[V:5] G,2E,2D,4 | 
[V:1] E2G3FED | 
[V:2] e2cdefg2- | 
[V:3] c4G4 | 
[V:4] G,3A,B,CDB, | 
[V:5] C,4z4 | 
[V:1] C8 | 
[V:2] g2f4e2 | 
[V:3] E2F2C4 | 
[V:4] C2A,2G,4 | 
[V:5] z4C,4 | 
[V:1] z4A4 | 
[V:2] f8 | 
[V:3] z2A3Bcd | 
[V:4] F,4z4 | 
[V:5] D,3E,F,G,A,F, | 
[V:1] G4F4 | 
[V:2] z4d4 | 
[V:3] B2c4B2 | 
[V:4] z4F,4 | 
[V:5] G,2E,2D,4 | 
[V:1] E2G3FED | 
[V:2] e2cdefg2- | 
[V:3] c4G4 | 
[V:4] G,3A,B,CDB, | 
[V:5] C,4z4 | 
[V:1] C4c4 | 
[V:2] g2f4e2 | 
[V:3] E2F2C4 | 
[V:4] C2A,2G,4 | 
[V:5] z4C,4 | 
[V:1] B2A4d2- | 
[V:2] f3ec2d2 | 
[V:3] z8 | 
[V:4] F,4z4 | 
[V:5] D,3C,A,,2B,,2- | 
[V:1] d2cBc4 | 
[V:2] G4z4 | 
[V:3] z4C4 | 
[V:4] z4F,4 | 
[V:5] B,,2A,,G,,A,,4 | 
[V:1] B8 | 
[V:2] d4dcBA | 
[V:3] D4G3A | 
[V:4] G,3E,D,2E,2- | 
[V:5] G,,8- | 
[V:1] z4G4- | 
[V:2] G2c4B2 | 
[V:3] B2G2G4 | 
[V:4] E,2D,C,D,4 | 
[V:5] G,,8 | 
[V:1] G4E3F | 
[V:2] c8 | 
[V:3] z2C2C3D | 
[V:4] C,8- | 
[V:5] z8 | 
[V:1] G2A2G2E2 | 
[V:2] c4c4 | 
[V:3] E2F2G2A2 | 
[V:4] C,8 | 
[V:5] z8 | 
[V:1] F3GA2B2 | 
[V:2] d2D2F3G | 
[V:3] D8 | 
[V:4] z8 | 
[V:5] z8 | 
[V:1] c2d3cA2 | 
[V:2] A2B3cd2 | 
[V:3] z8 | 
[V:4] z8 | 
[V:5] z8 | 
[V:1] B2E2E3F | 
[V:2] G4c2c2- | 
[V:3] z2C2C3D | 
[V:4] z8 | 
[V:5] z8 | 
[V:1] G2A2G2E2 | 
[V:2] c2A2B2c2 | 
[V:3] E2F2G2A2 | 
[V:4] z8 | 
[V:5] z8 | 
[V:1] F3GA2B2 | 
[V:2] d2D2F3G | 
[V:3] D8 | 
[V:4] z8 | 
[V:5] z8 | 
[V:1] c2d3cA2 | 
[V:2] A2B3cd2 | 
[V:3] z8 | 
[V:4] z8 | 
[V:5] z8 | 
[V:1] B2G2d4- | 
[V:2] G8 | 
[V:3] z2D2D3C | 
[V:4] z8 | 
[V:5] z2G,,2G,,3A,, | 
[V:1] d2c2B2cB | 
[V:2] z4z2G2 | 
[V:3] D2E2F2G2 | 
[V:4] z8 | 
[V:5] B,,2C,2D,2E,2 | 
[V:1] c4A4 | 
[V:2] A4E3F | 
[V:3] E8 | 
[V:4] z2C,2C,3D, | 
[V:5] A,,8 | 
[V:1] G2F2E4 | 
[V:2] G2A2B2c2 | 
[V:3] z8 | 
[V:4] E,2F,2G,2A,2 | 
[V:5] z8 | 
[V:1] D4z2d2- | 
[V:2] d8 | 
[V:3] z2G2G3F | 
[V:4] D,8 | 
[V:5] z2G,,2G,,3A,, | 
[V:1] d2c2B2cB | 
[V:2] z4z2G2 | 
[V:3] D2E2F2G2 | 
[V:4] z8 | 
[V:5] B,,2C,2D,2E,2 | 
[V:1] c4A4 | 
[V:2] A4E2F2 | 
[V:3] E8 | 
[V:4] z2C,2C,3D, | 
[V:5] A,,8 | 
[V:1] G2F2E4 | 
[V:2] G2A2B2c2 | 
[V:3] z4z2A2 | 
[V:4] E,2F,2G,2A,2 | 
[V:5] z4z2A,,2 | 
[V:1] D2d3cB2 | 
[V:2] d8- | 
[V:3] F2_B3AG2 | 
[V:4] D,8- | 
[V:5] B,,2G,,3A,,B,,C, | 
[V:1] A2G4^F2 | 
[V:2] d8- | 
[V:3] F2G2A4 | 
[V:4] D,8- | 
[V:5] D,2G,,2D,4 | 
[V:1] G8 | 
[V:2] d8- | 
[V:3] G8- | 
[V:4] D,8- | 
[V:5] G,,8- | 
[V:1] G8 ||  
[V:2] d8 ||  
[V:3] G8 ||  
[V:4] D,8 ||  
[V:5] G,,8 ||  
[V:1]  [K:C] [K:clef=treble][M:2/1]z8 | 
[V:2]  [K:C] [K:clef=treble-8][M:2/1]G3AB2c2 | 
[V:3]  [K:C] [K:clef=treble-8][M:2/1]z8 | 
[V:4]  [K:C] [K:clef=bass][M:2/1]z8 | 
[V:5]  [K:C] [K:clef=bass][M:2/1]z8 | 
[V:1] z8 | 
[V:2] G2c4B2 | 
[V:3] z8 | 
[V:4] z8 | 
[V:5] z8 | 
[V:1] G3AB2c2 | 
[V:2] c4z2e2- | 
[V:3] z8 | 
[V:4] z8 | 
[V:5] z8 | 
[V:1] G2c4B2 | 
[V:2] e2dcd4 | 
[V:3] z8 | 
[V:4] z8 | 
[V:5] z8 | 
[V:1] c8 | 
[V:2] c3de2f2 | 
[V:3] z8 | 
[V:4] z8 | 
[V:5] z8 | 
[V:1] A3BG4 | 
[V:2] c2f4e2 | 
[V:3] z8 | 
[V:4] z8 | 
[V:5] z8 | 
[V:1] F2A2B2d2- | 
[V:2] fedcd4 | 
[V:3] z8 | 
[V:4] z8 | 
[V:5] z8 | 
[V:1] d2cBc4 | 
[V:2] B3cA4 | 
[V:3] z8 | 
[V:4] z8 | 
[V:5] z8 | 
[V:1] B2G2B2d2- | 
[V:2] G8 | 
[V:3] z8 | 
[V:4] z8 | 
[V:5] z8 | 
[V:1] d2cBc4 | 
[V:2] z2g3ef2 | 
[V:3] z8 | 
[V:4] z8 | 
[V:5] z8 | 
[V:1] B4z2G2 | 
[V:2] g3fedcB | 
[V:3] z8 | 
[V:4] z8 | 
[V:5] z8 | 
[V:1] A2c2B2G2 | 
[V:2] A4z2g2- | 
[V:3] z8 | 
[V:4] z8 | 
[V:5] z8 | 
[V:1] A3cB4 | 
[V:2] gef2g3f | 
[V:3] z8 | 
[V:4] z8 | 
[V:5] z8 | 
[V:1] z2G2ABcA | 
[V:2] edcBA4 | 
[V:3] z8 | 
[V:4] z8 | 
[V:5] z8 | 
[V:1] B2G2A2B2 | 
[V:2] G4z2g2 | 
[V:3] z8 | 
[V:4] z8 | 
[V:5] z8 | 
[V:1] c3BAGFE | 
[V:2] e2f3edc | 
[V:3] z8 | 
[V:4] z8 | 
[V:5] z8 | 
[V:1] D4z2G2 | 
[V:2] B4c4 | 
[V:3] z8 | 
[V:4] z8 | 
[V:5] z8 | 
[V:1] A2B2c3B | 
[V:2] z2g2e2f2- | 
[V:3] z8 | 
[V:4] z8 | 
[V:5] z8 | 
[V:1] AGFED4 | 
[V:2] fedcBcdB | 
[V:3] z8 | 
[V:4] z8 | 
[V:5] z8 | 
[V:1] E8 ||  
[V:2] c8 ||  
[V:3] z8 ||  
[V:4] z8 ||  
[V:5] z8 ||  
[V:1]  [K:C] [K:clef=treble][M:2/1]z8 | 
[V:2]  [K:C] [K:clef=treble-8][M:2/1]z8 | 
[V:3]  [K:C] [K:clef=treble-8][M:2/1]z8 | 
[V:4]  [K:C] [K:clef=bass][M:2/1]z8 | 
[V:5]  [K:C] [K:clef=bass][M:2/1]G,8 | 
[V:1] z8 | 
[V:2] z8 | 
[V:3] z8 | 
[V:4] z8 | 
[V:5] A,2A,2F,4 | 
[V:1] z8 | 
[V:2] z8 | 
[V:3] z8 | 
[V:4] C8 | 
[V:5] z2E,2F,2F,2 | 
[V:1] z8 | 
[V:2] z8 | 
[V:3] z8 | 
[V:4] D2D2B,4 | 
[V:5] D,4G,2G,2- | 
[V:1] z8 | 
[V:2] z8 | 
[V:3] z8 | 
[V:4] z2A,2B,2B,2 | 
[V:5] G,2F,2G,3F, | 
[V:1] z8 | 
[V:2] z8 | 
[V:3] z8 | 
[V:4] G,4C2C2- | 
[V:5] G,F,E,D,E,4 | 
[V:1] z8 | 
[V:2] z8 | 
[V:3] z8 | 
[V:4] C2B,2C3B, | 
[V:5] D,4z2A,2- | 
[V:1] z8 | 
[V:2] z8 | 
[V:3] z8 | 
[V:4] CB,A,G,A,4 | 
[V:5] A,2G,4F,2 | 
[V:1] z8 | 
[V:2] z8 | 
[V:3] z8 | 
[V:4] G,4z2D2- | 
[V:5] G,2E,2F,2D,2 | 
[V:1] z8 | 
[V:2] z8 | 
[V:3] z8 | 
[V:4] D2C4B,2 | 
[V:5] E,4z2D,2 | 
[V:1] z8 | 
[V:2] z8 | 
[V:3] z8 | 
[V:4] C2A,2B,2G,2 | 
[V:5] E,2F,2G,4 | 
[V:1] z8 | 
[V:2] z8 | 
[V:3] z8 | 
[V:4] A,4z2G,2 | 
[V:5] F,3E,D,2C,2- | 
[V:1] z8 | 
[V:2] z8 | 
[V:3] z8 | 
[V:4] A,2B,2C4 | 
[V:5] C,B,,A,,G,,A,,4 | 
[V:1] z8 | 
[V:2] z8 | 
[V:3] z8 | 
[V:4] B,3A,G,2F,2- | 
[V:5] G,,4z2D,2 | 
[V:1] z8 | 
[V:2] z8 | 
[V:3] z8 | 
[V:4] F,E,D,C,D,4 | 
[V:5] E,F,G,E,F,4 | 
[V:1] z8 | 
[V:2] z8 | 
[V:3] z8 | 
[V:4] C,4z2G,2 | 
[V:5] E,3D,C,2B,,2 | 
[V:1] z8 | 
[V:2] z8 | 
[V:3] z8 | 
[V:4] A,B,CA,B,4 | 
[V:5] A,,4G,,4 | 
[V:1] z8 | 
[V:2] z8 | 
[V:3] z8 | 
[V:4] A,3G,F,2E,2 | 
[V:5] z2D,2F,2G,2 | 
[V:1] z8 | 
[V:2] z8 | 
[V:3] z8 | 
[V:4] D,4C,4 | 
[V:5] A,2B,2C3B, | 
[V:1] z8 | 
[V:2] z8 | 
[V:3] z8 | 
[V:4] z2G,2B,2C2 | 
[V:5] A,G,B,4A,2- | 
[V:1] z8 | 
[V:2] z8 | 
[V:3] z8 | 
[V:4] D2E2F3E | 
[V:5] A,2G,2A,3G, | 
[V:1] z8 | 
[V:2] z8 | 
[V:3] z8 | 
[V:4] DCE4D2- | 
[V:5] F,E,G,3F,E,D, | 
[V:1] z8 | 
[V:2] z8 | 
[V:3] z8 | 
[V:4] D2C2D3C | 
[V:5] E,4D,2F,2 | 
[V:1] z8 | 
[V:2] z8 | 
[V:3] z8 | 
[V:4] B,A,C3B,A,G, | 
[V:5] G,2A,3G,G,2- | 
[V:1] z8 |]  
[V:2] z8 |]  
[V:3] z8 |]  
[V:4] A,4G,4 |]  
[V:5] G,2^F,2G,4 |]  



